X:21154 
T:OLLISTRUM JIG, The 
B:DMI.0326
Z:Nordberg/Black
R:jig
%Q:1/4=160
M:6/8
L:1/8
K:G
"D modal"
G|EGE FDD|FDd cAG|EGE FDD|FDd A2G|
EGE FDD|FDd cde|fed efg|fed cA:|
Ecc Add|Acc cAG|Ecc Add|edc A2G|
Ecc Add|Acc cAG|Ecc efg|1 edc A2:|\
[2 edc Hd3|]

%%%

